nova/resources/svg/fluent/hide-slide.svg

<svg width="24" height="24" viewBox="0 0 24 24" fill="none" xmlns="http://www.w3.org/2000/svg">
<path d="M6.25 16.4953C6.6297 16.4953 6.94349 16.7774 6.99315 17.1435L7 17.2453V18.25C7 18.6297 7.28215 18.9435 7.64823 18.9932L7.75 19H8.25C8.66421 19 9 19.3358 9 19.75C9 20.1297 8.71785 20.4435 8.35177 20.4932L8.25 20.5H7.75C6.55914 20.5 5.58436 19.5748 5.50519 18.404L5.5 18.25V17.2453C5.5 16.831 5.83579 16.4953 6.25 16.4953ZM21.25 16.4953C21.6642 16.4953 22 16.831 22 17.2453V18.25C22 19.4926 20.9926 20.5 19.75 20.5H18.7471C18.3329 20.5 17.9971 20.1642 17.9971 19.75C17.9971 19.3358 18.3329 19 18.7471 19H19.75C20.1642 19 20.5 18.6642 20.5 18.25V17.2453C20.5 16.831 20.8358 16.4953 21.25 16.4953ZM14.7529 19H16.248C16.6622 19 16.998 19.3358 16.998 19.75C16.998 20.1297 16.7158 20.4435 16.3497 20.4932L16.248 20.5H14.7529C14.3387 20.5 14.0029 20.1642 14.0029 19.75C14.0029 19.3703 14.285 19.0565 14.6511 19.0068L14.7529 19ZM10.7507 19H12.2463C12.6605 19 12.9963 19.3358 12.9963 19.75C12.9963 20.1297 12.7142 20.4435 12.3481 20.4932L12.2463 20.5H10.7507C10.3364 20.5 10.0007 20.1642 10.0007 19.75C10.0007 19.3703 10.2828 19.0565 10.6489 19.0068L10.7507 19ZM16.5 3C17.7426 3 18.75 4.00736 18.75 5.25V5.5H17.25V5.25C17.25 4.83579 16.9142 4.5 16.5 4.5H4.25C3.83579 4.5 3.5 4.83579 3.5 5.25V14.75C3.5 15.1642 3.83579 15.5 4.25 15.5H4.5V17H4.25C3.00736 17 2 15.9926 2 14.75V5.25C2 4.00736 3.00736 3 4.25 3H16.5ZM6.25 11.5008C6.6297 11.5008 6.94349 11.7829 6.99315 12.149L7 12.2508V14.7453C7 15.1595 6.66421 15.4953 6.25 15.4953C5.8703 15.4953 5.55651 15.2131 5.50685 14.847L5.5 14.7453V12.2508C5.5 11.8366 5.83579 11.5008 6.25 11.5008ZM21.25 11.5008C21.6297 11.5008 21.9435 11.7829 21.9932 12.149L22 12.2508V14.7453C22 15.1595 21.6642 15.4953 21.25 15.4953C20.8703 15.4953 20.5565 15.2131 20.5068 14.847L20.5 14.7453V12.2508C20.5 11.8366 20.8358 11.5008 21.25 11.5008ZM19.2541 6.5H19.75C20.9409 6.5 21.9156 7.42516 21.9948 8.59595L22 8.75V9.75352C22 10.1677 21.6642 10.5035 21.25 10.5035C20.8703 10.5035 20.5565 10.2214 20.5068 9.85529L20.5 9.75352V8.75C20.5 8.3703 20.2178 8.05651 19.8518 8.00685L19.75 8H19.2541C18.8399 8 18.5041 7.66421 18.5041 7.25C18.5041 6.8703 18.7863 6.55651 19.1523 6.50685L19.2541 6.5ZM8.75281 6.5C9.16702 6.5 9.50281 6.83579 9.50281 7.25C9.50281 7.66421 9.16702 8 8.75281 8H7.75C7.33579 8 7 8.33579 7 8.75V9.75352C7 10.1677 6.66421 10.5035 6.25 10.5035C5.83579 10.5035 5.5 10.1677 5.5 9.75352V8.75C5.5 7.50736 6.50736 6.5 7.75 6.5H8.75281ZM15.249 6.5H16.752C17.1662 6.5 17.502 6.83579 17.502 7.25C17.502 7.6297 17.2198 7.94349 16.8537 7.99315L16.752 8H15.249C14.8348 8 14.499 7.66421 14.499 7.25C14.499 6.8703 14.7811 6.55651 15.1472 6.50685L15.249 6.5ZM11.25 6.5H12.7451C13.1593 6.5 13.4951 6.83579 13.4951 7.25C13.4951 7.6297 13.2129 7.94349 12.8469 7.99315L12.7451 8H11.25C10.8358 8 10.5 7.66421 10.5 7.25C10.5 6.8703 10.7822 6.55651 11.1482 6.50685L11.25 6.5Z" fill="currentColor"/>
</svg>

<svg viewBox="0 0 24 24" fill="none" xmlns="http://www.w3.org/2000/svg"><path d="M6.25 16.495a.75.75 0 01.743.648l.007.102v1.005c0 .38.282.694.648.743L7.75 19h.5a.75.75 0 01.102 1.493l-.102.007h-.5a2.25 2.25 0 01-2.245-2.096L5.5 18.25v-1.005a.75.75 0 01.75-.75zm15 0a.75.75 0 01.75.75v1.005a2.25 2.25 0 01-2.25 2.25h-1.003a.75.75 0 010-1.5h1.003a.75.75 0 00.75-.75v-1.005a.75.75 0 01.75-.75zM14.753 19h1.495a.75.75 0 01.102 1.493l-.102.007h-1.495a.75.75 0 01-.102-1.493l.102-.007zm-4.002 0h1.495a.75.75 0 01.102 1.493l-.102.007h-1.495a.75.75 0 01-.102-1.493L10.75 19zM16.5 3a2.25 2.25 0 012.25 2.25v.25h-1.5v-.25a.75.75 0 00-.75-.75H4.25a.75.75 0 00-.75.75v9.5c0 .414.336.75.75.75h.25V17h-.25A2.25 2.25 0 012 14.75v-9.5A2.25 2.25 0 014.25 3H16.5zM6.25 11.5a.75.75 0 01.743.649l.007.102v2.494a.75.75 0 01-1.493.102l-.007-.102v-2.494a.75.75 0 01.75-.75zm15 0a.75.75 0 01.743.649l.007.102v2.494a.75.75 0 01-1.493.102l-.007-.102v-2.494a.75.75 0 01.75-.75zm-1.996-5h.496a2.25 2.25 0 012.245 2.096L22 8.75v1.004a.75.75 0 01-1.493.101l-.007-.101V8.75a.75.75 0 00-.648-.743L19.75 8h-.496a.75.75 0 01-.102-1.493l.102-.007zm-10.501 0a.75.75 0 010 1.5H7.75a.75.75 0 00-.75.75v1.004a.75.75 0 01-1.5 0V8.75A2.25 2.25 0 017.75 6.5h1.003zm6.496 0h1.503a.75.75 0 01.102 1.493L16.752 8h-1.503a.75.75 0 01-.102-1.493l.102-.007zm-3.999 0h1.495a.75.75 0 01.102 1.493L12.745 8H11.25a.75.75 0 01-.102-1.493l.102-.007z" fill="currentColor"/></svg>
